X: 10432
T: Donegal Castle
R: hornpipe
M: 4/4
K: Gmajor
|:D2|G>d (3Bcd g>ba>f|e>cA>G F>dc>A|(3GDG e>G (3FDF d>F|G>g (3c'ba g>e (3fed|
G2 B>d g2 f>a|e>cA>G F>D (3cBA|(3GDG e>G (3FDF d>F|(3Ggd (3cBA G2:|
K: Dmaj
|:A>G|F>Ad>A f>dc>d|B>GB>d g>d (3Bcd|c2 (3def g>ec>e|d2 (3fdB A2 (3GAG|
[1 F>Ad>A f2 (3dcd|B>G (3Bcd g2 (3dBd|c>de>f g2 (3ece|d>Af>e d>B:|
[2 (3FAd (3fdA (3FAd (3fdA|(3GBd (3gdB (3GBd (3gdB|(3c^Bc c'>=b a>gf>e|(3ded c>e d2||

